X:1
T:Tanz, Tanz, Yiddelekh
T:Klezmorris
T:Lustig Zein
%date: 1880?
S:Naftule Brandwein 1917
R:Reel
M:4/4
A:Unknown
S:"kichuninrin" <cliff@kichu.com> tradtunes 2010-5-11
H:tune transcribed by Andy Klapper <klapper@cs.uky.edu>
%P:A.(AB^2C)2(AD^2C)2 when danced for 4
K:Gm %Transposed from AM
P:A
D2 ||\
   DE ^FG AB AG | ^F2 F2 G2 G2 | A2 A2 cB AG | ^F2 F2 G4 |
   DE ^FG AB AG | ^F2 F2 G2 G2 | ^F2 D2 ED EC | D4 D2 F2 |
P:B
|: Bc d2 d2 d2 | cd cA F2 F2 | FG AB cd ec | d2 d2 g4 |
   GA B2 B2 B2 | AB A^F D2 D2 | DE ^FG AB AF |1 G4 G2 F2 :|2 G4 G2 G2 ||
P:C
|: D2 ^F2 D2 F2 | G2 G2 cB AG | ^F2 F2 GF GB | A2 d2 d4 |
   D2 ^F2 D2 F2 | G2 G2 cB AG | ^F2 D2 ED EC | D4 D2 D2 |
P:D
|: Bc d2 d2 d2 | cd cA F2 F2 | FG AB cd ec | d2 d2 g4 |
   G2 A2 B4 | B4 B4 | A2 B2 A2 ^F2 | D4 D2 D2 | DE ^FG AB AF | G4 G2 F2 :|
